X:1
T:A minor        Jacob French, 1789
T:Charles Wesley, 1743 (Psalm 57)                                88. 88. 88.      
T:Preparation
T:Transcribed from  The New American Melody, 1789.
%%score [ 1 2 3 4 ]
L:1/8
Q:1/4=110
M:2/2
K:C
V:1 treble nm="Tr." snm="Tr."
V:2 treble nm="C." snm="C."
V:3 treble-8 nm="T." snm="T."
V:4 bass nm="B." snm="B."
V:1
 A4 | (A2 c2) (B2 A2) | ^G4 (e2 d2) | (c2 B2) A4 | B8 | z4 c4 | B4 A4 | G4 c4 | (B2 A2) ^G4 | A8 | %10
w: ||||||||||
w: ||||||||||
 z4 c4 | c4 B4 | B4 A4 | (A2 c2) (B2 A2) | ^G8 | z4 ^G4 | A4 B4 | c4 B4 | (A2 c2) (B2 ^G2) | A8 |: %20
w: ||||||||||
w: ||||||||||
 z8 | z8 | z4 B4 | cB A2 ^G2 G2 | Ac BA B2 c2 | f2 e2 dc B2 | A4 ^G4 | A8 :| %28
w: ||Till|Sa- * tan's ty- ran-|ny * is * o'er, And|cru- el sin * sub-|sists no|more.|
w: ||Till|of * thy na- ture|I * par- * take, And|bright in all * thine|im- age|wake.|
V:2
 E4 | C4 F4 | E4 G4 | (3(E2 F2 G2) A4 | ^G8 | z4 G4 | G4 E4 | E4 G4 | F4 E4 | E8 | z4 G4 | G4 G4 | %12
w: 1.~Be|mer- ci-|ful, O|God, * * to|me,|To|me who|in thy|love con-|fide;|To|thy pro-|
w: 2.~My|heart is|fixed, O|God, * * my|heart|Is|fixed to|tri- umph|in thy|grace;|A-|wake my|
 G4 E4 | E4 F4 | E8 | z4 E4 | E4 G4 | G4 G4 | E4 E4 | E8 |: z8 | z8 | z8 | E4 E2 E2 | E2 G2 G2 A2 | %25
w: tec- ting|love I|flee,|Be-|neath thy|wings my|soul I|hide,||||Till Sa- tan's|ty- ran- ny is|
w: lute, and|bear thy|part,|My|glo- ry|is to|sing thy|praise,||||Till of thy|na- ture I par-|
 A2 G2 A2 G2 | F2 F2 E2 E2 | E8 :| %28
w: o'er. And cru- el|sin sub- sists no|more.|
w: take, And bright in|all thine im- age|wake.|
V:3
 A4 | e4 (d2 c2) | B4 (c2 B2) | (A2 B2) (c2 d2) | e8 | z4 e4 | d4 c4 | B4 e4 | (d2 c2) B4 | A8 | %10
w: ||||||||||
w: ||||||||||
 z4 e4 | e4 d4 | d4 c4 | (c2 e2) (d2 c2) | B8 | z4 B4 | c4 d4 | e4 d4 | (c2 A2) (B2 cB) | A8 |: %20
w: ||||||||||
w: ||||||||||
 z8 | z4 A4 | G2 F2 E2 E2 | AB c2 B2 B2 | c2 d2 e2 c2 | d2 e2 f2 e2 | (d2 c2) B4 | A8 :| %28
w: |Till|Sa- tan's ty- ran-|ny * is o'er, and|cru- el sin su-|sists no more, sub-|sists * no|more.|
w: |Till|of thy na- ture|I * par- take, And|bright in all thine|im- age wake, thine|im- * age|wake.|
V:4
 [A,,A,]4 | [A,,A,]4 D,4 | E,4 (3(E,2 F,2 G,2) | (A,2 G,2) F,4 | E,8 | z4 C,4 | [G,,G,]4 [A,,A,]4 | %7
w: |||||||
w: |||||||
 E,4 C,4 | D,4 E,4 | A,,8 | z4 C,4 | C,4 [G,,G,]4 | [G,,G,]4 [A,,A,]4 | [A,,A,]4 D,4 | E,8 | %15
w: ||||||||
w: ||||||||
 z4 E,4 | [A,,A,]4 [G,,G,]4 | C,4 [G,,G,]4 | [A,,A,]4 E,4 | A,,8 |: z4 E,4 | C,2 B,,2 A,,2 A,,2 | %22
w: |||||Till|Sa- tan's ty- ran-|
w: |||||Till|of thy na- ture|
 C,2 D,2 E,2 E,2 | [A,,A,]2 [A,,A,]2 E,2 E,2 | A,2 G,F, E,2 F,E, | D,2 C,2 D,2 E,2 | %26
w: ny is o'er, And|cru- el sin sub-|sists no * more, And *|cru- el sin sub-|
w: I par- take, And|bright in all thine|im- age * wake, And *|bright in all thine|
 (F,2 D,2) E,4 | A,,8 :| %28
w: sists * no|more.|
w: im- * age|wake.|

